X:1
T:Title
%%score { 1 | 2 }
L:1/8
M:6/8
K:G
V:1 treble nm="Grand Piano"
V:2 bass 
V:1
 z3 z2[Q:1/4=87] [B,G] | [DB]>[DB][DB] [DB][CA][B,G] | [DB]2 [DB] [DB]2 [Dc] | d>dd dcB | %4
 d3- d2 B | [Ac]>[Ac][Ac] [Ac][GB][FA] | B2 B B2 [DGB] | [GA][GB][GA] EFG | [FA]6 | B3 B3 | %10
 B>AG .B3 | d3 d3 | d>cB .d3 | [Ac]>[Ac][Ac] [Ac][GB][FA] | [DGB]3 [CEA]3 | [B,DG]3 [CDF]2 [CDF] | %16
[M:5/8] [G,B,DG]-[G,B,DG]- [G,B,DG]3 |] %17
V:2
 z3 z2 [G,,G,] | [G,,G,]>[G,,G,][G,,G,] [G,,G,][G,,G,][G,,G,] | [G,,G,]2 [G,,G,] [G,,G,]2 [G,,A,] | %3
 [G,B,G]>[G,B,G][G,B,G] [G,B,G][G,A,D][G,D] | [G,B,G]3- [G,B,G]2 [G,DG] | %5
 [D,D]>[D,D][D,D] [D,D][D,D][D,D] | [G,DG]2 [G,DG] [G,DG]2[K:bass] [G,,G,] | %7
 [E,^C][E,C][E,C] [A,C][A,C][A,CE] | [D,C]6 | [G,DG]3 [G,DG]3 | [G,DG]>[G,CD][G,B,D] .[G,DG]3 | %11
 [G,B,G]3 [G,B,G]3 | [G,B,G]>[G,A,D][G,D] .[G,B,G]3 | [D,D]>[D,D][D,D] [D,D][D,D][D,D] | G,3 C,3 | %15
 D,3 D,2 D, |[M:5/8] G,,-G,,- G,,3 |] %17

